src/16/actions/zoom-1-to-2.svg

<svg xmlns="http://www.w3.org/2000/svg" width="16" height="16" viewBox="0 0 16 16">
 <defs>
  <style id="current-color-scheme" type="text/css">
   .ColorScheme-Text { color:#565656; } .ColorScheme-Highlight { color:#5294e2; }
  </style>
 </defs>
 <path style="fill:currentColor" class="ColorScheme-Text" d="M 3.1875 2 C 2.5248 2 2 2.54885 2 3.21875 L 2 7 L 4 7 L 4 4 L 7 4 L 7 2 L 3.1875 2 z M 9 2 L 9 4 L 12 4 L 12 7 L 14 7 L 14 3.21875 C 14 2.54895 13.4755 2 12.8125 2 L 9 2 z M 9 5 L 9 8 L 9 11 L 11 11 L 11 5 L 9 5 z M 9 8 L 7 6 L 7 10 L 9 8 z M 5 6 L 5 10 L 6 10 L 6 6 L 5 6 z M 2 9 L 2 12.78125 C 2 13.45125 2.5248 14 3.1875 14 L 7 14 L 7 12 L 4 12 L 4 9 L 2 9 z M 12 9 L 12 12 L 9 12 L 9 14 L 12.8125 14 C 13.4755 14 14 13.45125 14 12.78125 L 14 9 L 12 9 z"/>
</svg>

<svg xmlns="http://www.w3.org/2000/svg" width="16" height="16"><defs><style id="current-color-scheme" type="text/css"></style></defs><path d="M3.188 2C2.524 2 2 2.549 2 3.219V7h2V4h3V2H3.187zM9 2v2h3v3h2V3.219C14 2.549 13.476 2 12.812 2H9zm0 3v6h2V5H9zm0 3L7 6v4l2-2zM5 6v4h1V6H5zM2 9v3.781C2 13.451 2.525 14 3.188 14H7v-2H4V9H2zm10 0v3H9v2h3.813c.662 0 1.187-.549 1.187-1.219V9h-2z" fill="currentColor" color="#565656"/></svg>
